X: 34515
T: Rights Of Man, The
R: hornpipe
M: 4/4
K: Eminor
GA|:"Em"(3BcB AB GAFG|"Am"EFGA "Em"B2 ef|"C"gfed "G"edBd|"Am"cBAG "D"A2 GA|
"Em"(3BcB (3ABA (3GAG (3FGF|"Am"EFGA "Em"B2 ef|"Am"gfed "D"Bgfg|1 "Em"e2 E2 E2 GA:|2 "Em"e2 E2 E2 ga||
|:"G"babg "Em"efga|"G"babg "Em"egfe|"D"d^cde fefg|"Bm"afdf a2gf|
"C"edef gfga|"Am"bgaf "Em"gfef|"Am" gfed "D"Bgfg|1 "Em"e2 E2 E2 ga:|2 "Em"e2 E2 E4||

